; G-Code generated by Simplify3D(R) Version 4.0.1
; Mar 2, 2018 at 12:20:27 PM
; Settings Summary
;   processName,Process1
;   applyToModels,moai-Big-NO_OVERHANG
;   profileName,T1250 (modified)
;   profileVersion,2018-02-19 12:26:53
;   baseProfile,Default
;   printMaterial,PLA
;   printQuality,Fast
;   printExtruders,
;   extruderName,Extruder 1
;   extruderToolheadNumber,0
;   extruderDiameter,0.4
;   extruderAutoWidth,1
;   extruderWidth,0.48
;   extrusionMultiplier,1
;   extruderUseRetract,1
;   extruderRetractionDistance,5.2
;   extruderExtraRestartDistance,0
;   extruderRetractionZLift,1
;   extruderRetractionSpeed,4800
;   extruderUseCoasting,0
;   extruderCoastingDistance,0.2
;   extruderUseWipe,0
;   extruderWipeDistance,4
;   primaryExtruder,0
;   layerHeight,0.3
;   topSolidLayers,6
;   bottomSolidLayers,2
;   perimeterOutlines,3
;   printPerimetersInsideOut,0
;   startPointOption,2
;   startPointOriginX,0
;   startPointOriginY,0
;   sequentialIslands,0
;   spiralVaseMode,0
;   firstLayerHeightPercentage,100
;   firstLayerWidthPercentage,100
;   firstLayerUnderspeed,0.6
;   useRaft,1
;   raftExtruder,0
;   raftTopLayers,3
;   raftBaseLayers,2
;   raftOffset,3
;   raftSeparationDistance,0.14
;   raftTopInfill,100
;   aboveRaftSpeedMultiplier,0.3
;   useSkirt,1
;   skirtExtruder,0
;   skirtLayers,1
;   skirtOutlines,2
;   skirtOffset,4
;   usePrimePillar,0
;   primePillarExtruder,999
;   primePillarWidth,12
;   primePillarLocation,7
;   primePillarSpeedMultiplier,1
;   useOozeShield,0
;   oozeShieldExtruder,999
;   oozeShieldOffset,2
;   oozeShieldOutlines,1
;   oozeShieldSidewallShape,1
;   oozeShieldSidewallAngle,30
;   oozeShieldSpeedMultiplier,1
;   infillExtruder,0
;   internalInfillPattern,Grid
;   externalInfillPattern,Rectilinear
;   infillPercentage,2
;   outlineOverlapPercentage,30
;   infillExtrusionWidthPercentage,100
;   minInfillLength,5
;   infillLayerInterval,1
;   internalInfillAngles,45,-45
;   overlapInternalInfillAngles,1
;   externalInfillAngles,45,-45
;   generateSupport,1
;   supportExtruder,0
;   supportInfillPercentage,5
;   supportExtraInflation,0
;   supportBaseLayers,0
;   denseSupportExtruder,0
;   denseSupportLayers,0
;   denseSupportInfillPercentage,20
;   supportLayerInterval,1
;   supportHorizontalPartOffset,1
;   supportUpperSeparationLayers,1
;   supportLowerSeparationLayers,1
;   supportType,0
;   supportGridSpacing,1
;   maxOverhangAngle,65
;   supportAngles,45
;   temperatureName,Extruder 1 Temperature,Heated Bed
;   temperatureNumber,0,0
;   temperatureSetpointCount,1,2
;   temperatureSetpointLayers,1,1,2
;   temperatureSetpointTemperatures,200,65,60
;   temperatureStabilizeAtStartup,1,1
;   temperatureHeatedBed,0,1
;   temperatureRelayBetweenLayers,0,0
;   temperatureRelayBetweenLoops,0,0
;   fanLayers,1,3,6,8,10
;   fanSpeeds,0,20,50,75,100
;   blipFanToFullPower,0
;   adjustSpeedForCooling,1
;   minSpeedLayerTime,15
;   minCoolingSpeedSlowdown,20
;   increaseFanForCooling,0
;   minFanLayerTime,30
;   maxCoolingFanSpeed,100
;   increaseFanForBridging,1
;   bridgingFanSpeed,30
;   use5D,1
;   relativeEdistances,1
;   allowEaxisZeroing,1
;   independentExtruderAxes,0
;   includeM10123,0
;   stickySupport,1
;   applyToolheadOffsets,0
;   gcodeXoffset,0
;   gcodeYoffset,0
;   gcodeZoffset,0
;   overrideMachineDefinition,1
;   machineTypeOverride,1
;   strokeXoverride,261.6
;   strokeYoverride,261.6
;   strokeZoverride,600
;   originOffsetXoverride,130.8
;   originOffsetYoverride,130.8
;   originOffsetZoverride,0
;   homeXdirOverride,0
;   homeYdirOverride,0
;   homeZdirOverride,1
;   flipXoverride,1
;   flipYoverride,-1
;   flipZoverride,1
;   toolheadOffsets,0,0|0,0|0,0|0,0|0,0|0,0
;   overrideFirmwareConfiguration,0
;   firmwareTypeOverride,RepRap (Marlin/Repetier/Sprinter)
;   GPXconfigOverride,r2
;   baudRateOverride,250000
;   overridePrinterModels,0
;   printerModelsOverride
;   startingGcode,G28 ; home all axes,G1 F10000 Z5,G30,G1 F1000 Z0.1,G92 Z0,G1 F10000 Z10
;   layerChangeGcode,
;   retractionGcode,
;   toolChangeGcode,
;   endingGcode,M104 S0 ; turn off extruder,M140 S0 ; turn off bed,M106 P0 S0 ; turn off fan,G28,M84,,
;   exportFileFormat,gcode
;   celebration,0
;   celebrationSong,Random Song
;   postProcessing,
;   defaultSpeed,4800
;   outlineUnderspeed,0.6
;   solidInfillUnderspeed,0.8
;   supportUnderspeed,0.8
;   rapidXYspeed,15000
;   rapidZspeed,15000
;   minBridgingArea,50
;   bridgingExtraInflation,0
;   bridgingExtrusionMultiplier,1.2
;   bridgingSpeedMultiplier,0.35
;   useFixedBridgingAngle,0
;   fixedBridgingAngle,0
;   applyBridgingToPerimeters,0
;   filamentDiameters,1.75|1.75|1.75|1.75|1.75|1.75
;   filamentPricesPerKg,32|46|46|46|46|46
;   filamentDensities,1.75|1.25|1.25|1.25|1.25|1.25
;   useMinPrintHeight,0
;   minPrintHeight,0
;   useMaxPrintHeight,0
;   maxPrintHeight,0
;   useDiaphragm,0
;   diaphragmLayerInterval,20
;   robustSlicing,0
;   mergeAllIntoSolid,0
;   onlyRetractWhenCrossingOutline,0
;   retractBetweenLayers,1
;   useRetractionMinTravel,0
;   retractionMinTravel,3
;   retractWhileWiping,1
;   onlyWipeOutlines,1
;   avoidCrossingOutline,0
;   maxMovementDetourFactor,3
;   toolChangeRetractionDistance,12
;   toolChangeExtraRestartDistance,-0.5
;   toolChangeRetractionSpeed,600
;   externalThinWallType,1
;   internalThinWallType,1
;   thinWallAllowedOverlapPercentage,10
;   singleExtrusionMinLength,1
;   singleExtrusionMinPrintingWidthPercentage,50
;   singleExtrusionMaxPrintingWidthPercentage,200
;   singleExtrusionEndpointExtension,0.2
;   horizontalSizeCompensation,0
G90
M83
M106 S0
M140 S65
M190 S65
M104 S200 T0
M109 S200 T0
G28 ; home all axes
G1 F10000 Z5
G30
G1 F1000 Z0.1
G92 Z0
G1 F10000 Z10
G1 E-5.2000 F4800
G1 Z1.500 F15000
; process Process1
; layer 1, Z = 0.500
T0
; tool H0.500 W0.480
; skirt
G1 X0.160 Y17.373 F15000
G1 Z0.500 F15000
G1 E5.2000 F1440
G1 X-0.146 Y17.373 E0.0305 F2880
G1 X-0.161 Y17.373 E0.0015
G1 X-2.922 Y17.259 E0.2757
G1 X-4.252 Y17.246 E0.1327
G1 X-5.420 Y17.283 E0.1166
G1 X-7.847 Y17.442 E0.2427
G1 X-7.858 Y17.443 E0.0011
G1 X-8.083 Y17.451 E0.0225
G1 X-8.094 Y17.451 E0.0011
G1 X-9.847 Y17.459 E0.1749
G1 X-9.861 Y17.459 E0.0014
G1 X-10.152 Y17.448 E0.0290
G1 X-10.166 Y17.448 E0.0014
G1 X-11.420 Y17.354 E0.1255
G1 X-11.434 Y17.353 E0.0014
G1 X-11.710 Y17.321 E0.0278
G1 X-11.724 Y17.320 E0.0014
G1 X-12.811 Y17.155 E0.1097
G1 X-12.823 Y17.153 E0.0012
G1 X-13.058 Y17.110 E0.0239
G1 X-13.069 Y17.107 E0.0012
G1 X-13.901 Y16.926 E0.0850
G1 X-13.914 Y16.923 E0.0013
G1 X-14.165 Y16.858 E0.0259
G1 X-14.177 Y16.855 E0.0013
G1 X-15.028 Y16.605 E0.0885
G1 X-15.040 Y16.601 E0.0013
G1 X-15.291 Y16.518 E0.0264
G1 X-15.303 Y16.513 E0.0013
G1 X-16.155 Y16.195 E0.0907
G1 X-16.166 Y16.191 E0.0013
G1 X-16.404 Y16.092 E0.0257
G1 X-16.416 Y16.087 E0.0013
G1 X-17.330 Y15.671 E0.1002
G1 X-17.347 Y15.663 E0.0019
G1 X-17.699 Y15.479 E0.0396
G1 X-17.716 Y15.469 E0.0019
G1 X-18.962 Y14.730 E0.1445
G1 X-18.978 Y14.720 E0.0020
G1 X-19.314 Y14.495 E0.0403
G1 X-19.330 Y14.484 E0.0020
G1 X-20.232 Y13.805 E0.1125
G1 X-20.244 Y13.795 E0.0016
G1 X-20.498 Y13.586 E0.0328
G1 X-20.510 Y13.576 E0.0016
G1 X-21.366 Y12.803 E0.1150
G1 X-21.380 Y12.790 E0.0019
G1 X-21.659 Y12.509 E0.0395
G1 X-21.672 Y12.495 E0.0019
G1 X-22.475 Y11.595 E0.1203
G1 X-22.489 Y11.578 E0.0022
G1 X-22.767 Y11.226 E0.0448
G1 X-22.780 Y11.208 E0.0022
G1 X-23.473 Y10.211 E0.1211
G1 X-23.484 Y10.193 E0.0021
G1 X-23.711 Y9.821 E0.0435
G1 X-23.722 Y9.802 E0.0021
G1 X-24.278 Y8.756 E0.1182
G1 X-24.287 Y8.738 E0.0019
G1 X-24.454 Y8.377 E0.0398
G1 X-24.462 Y8.359 E0.0019
G1 X-24.888 Y7.291 E0.1147
G1 X-24.895 Y7.274 E0.0018
G1 X-25.014 Y6.925 E0.0369
G1 X-25.020 Y6.907 E0.0018
G1 X-25.323 Y5.850 E0.1097
G1 X-25.328 Y5.833 E0.0018
G1 X-25.411 Y5.477 E0.0365
G1 X-25.415 Y5.460 E0.0018
G1 X-25.612 Y4.379 E0.1096
G1 X-25.615 Y4.359 E0.0020
G1 X-25.666 Y3.953 E0.0408
G1 X-25.668 Y3.933 E0.0020
G1 X-25.763 Y2.562 E0.1371
G1 X-25.763 Y2.549 E0.0013
G1 X-25.772 Y2.277 E0.0272
G1 X-25.772 Y2.263 E0.0013
G1 X-25.769 Y1.601 E0.0661
G1 X-25.769 Y1.590 E0.0012
G1 X-25.760 Y1.354 E0.0235
G1 X-25.760 Y1.343 E0.0012
G1 X-25.688 Y0.304 E0.1039
G1 X-25.687 Y0.289 E0.0015
G1 X-25.652 Y-0.021 E0.0312
G1 X-25.650 Y-0.037 E0.0015
G1 X-25.386 Y-1.738 E0.1718
G1 X-25.383 Y-1.758 E0.0020
G1 X-25.298 Y-2.158 E0.0408
G1 X-25.293 Y-2.177 E0.0020
G1 X-24.982 Y-3.325 E0.1187
G1 X-24.977 Y-3.343 E0.0019
G1 X-24.858 Y-3.705 E0.0380
G1 X-24.852 Y-3.723 E0.0019
G1 X-24.402 Y-4.889 E0.1247
G1 X-24.392 Y-4.911 E0.0024
G1 X-24.184 Y-5.359 E0.0493
G1 X-24.173 Y-5.380 E0.0024
G1 X-23.386 Y-6.811 E0.1630
G1 X-23.374 Y-6.833 E0.0025
G1 X-23.099 Y-7.260 E0.0507
G1 X-23.085 Y-7.281 E0.0025
G1 X-22.282 Y-8.357 E0.1339
G1 X-22.270 Y-8.373 E0.0020
G1 X-22.000 Y-8.694 E0.0418
G1 X-21.987 Y-8.710 E0.0020
G1 X-21.122 Y-9.629 E0.1260
G1 X-21.111 Y-9.641 E0.0016
G1 X-20.869 Y-9.875 E0.0336
G1 X-20.857 Y-9.887 E0.0016
G1 X-20.276 Y-10.402 E0.0775
G1 X-20.266 Y-10.410 E0.0013
G1 X-20.066 Y-10.575 E0.0259
G1 X-20.056 Y-10.583 E0.0013
G1 X-19.183 Y-11.253 E0.1098
G1 X-19.174 Y-11.260 E0.0011
G1 X-18.988 Y-11.393 E0.0228
G1 X-18.979 Y-11.400 E0.0011
G1 X-17.507 Y-12.390 E0.1770
G1 X-17.315 Y-12.648 E0.0321
G1 X-16.498 Y-13.854 E0.1453
G1 X-16.493 Y-13.862 E0.0010
G1 X-16.369 Y-14.033 E0.0210
G1 X-16.363 Y-14.042 E0.0010
G1 X-15.319 Y-15.408 E0.1716
G1 X-15.311 Y-15.418 E0.0012
G1 X-15.149 Y-15.615 E0.0255
G1 X-15.141 Y-15.625 E0.0012
G1 X-14.484 Y-16.371 E0.0992
G1 X-14.478 Y-16.378 E0.0009
G1 X-14.351 Y-16.514 E0.0186
G1 X-14.345 Y-16.521 E0.0009
G1 X-13.637 Y-17.247 E0.1012
G1 X-13.630 Y-17.254 E0.0010
G1 X-13.479 Y-17.400 E0.0210
G1 X-13.471 Y-17.407 E0.0010
G1 X-12.900 Y-17.930 E0.0773
G1 X-12.887 Y-17.941 E0.0017
G1 X-12.622 Y-18.162 E0.0344
G1 X-12.609 Y-18.172 E0.0017
G1 X-11.721 Y-18.844 E0.1111
G1 X-11.704 Y-18.855 E0.0020
G1 X-11.364 Y-19.084 E0.0409
G1 X-11.347 Y-19.095 E0.0020
G1 X-10.446 Y-19.629 E0.1045
G1 X-10.434 Y-19.637 E0.0014
G1 X-10.173 Y-19.778 E0.0296
G1 X-10.160 Y-19.784 E0.0014
G1 X-9.299 Y-20.206 E0.0957
G1 X-9.288 Y-20.211 E0.0011
G1 X-9.081 Y-20.305 E0.0227
G1 X-9.071 Y-20.309 E0.0011
G1 X-7.924 Y-20.785 E0.1238
G1 X-7.909 Y-20.791 E0.0016
G1 X-7.602 Y-20.903 E0.0327
G1 X-7.586 Y-20.908 E0.0016
G1 X-6.354 Y-21.295 E0.1289
G1 X-6.336 Y-21.300 E0.0018
G1 X-5.971 Y-21.394 E0.0376
G1 X-5.953 Y-21.399 E0.0018
G1 X-4.650 Y-21.666 E0.1328
G1 X-4.639 Y-21.668 E0.0011
G1 X-4.415 Y-21.706 E0.0227
G1 X-4.404 Y-21.708 E0.0011
G1 X-3.496 Y-21.836 E0.0915
G1 X-3.483 Y-21.838 E0.0013
G1 X-3.212 Y-21.866 E0.0271
G1 X-3.199 Y-21.867 E0.0013
G1 X-2.255 Y-21.930 E0.0944
G1 X-2.245 Y-21.930 E0.0010
G1 X-2.034 Y-21.938 E0.0210
G1 X-2.024 Y-21.939 E0.0010
G1 X0.563 Y-21.962 E0.2582
G1 X0.573 Y-21.962 E0.0010
G1 X0.785 Y-21.958 E0.0211
G1 X0.796 Y-21.958 E0.0010
G1 X1.264 Y-21.935 E0.0468
G1 X1.891 Y-21.942 E0.0625
G1 X1.905 Y-21.942 E0.0014
G1 X2.187 Y-21.935 E0.0281
G1 X2.200 Y-21.934 E0.0014
G1 X3.225 Y-21.867 E0.1025
G1 X3.243 Y-21.866 E0.0018
G1 X3.604 Y-21.824 E0.0363
G1 X3.622 Y-21.821 E0.0018
G1 X5.244 Y-21.553 E0.1640
G1 X5.257 Y-21.551 E0.0013
G1 X5.522 Y-21.497 E0.0270
G1 X5.535 Y-21.494 E0.0013
G1 X6.488 Y-21.263 E0.0978
G1 X6.506 Y-21.258 E0.0018
G1 X6.865 Y-21.152 E0.0373
G1 X6.882 Y-21.146 E0.0018
G1 X8.125 Y-20.707 E0.1315
G1 X8.139 Y-20.702 E0.0014
G1 X8.412 Y-20.593 E0.0294
G1 X8.425 Y-20.587 E0.0014
G1 X9.636 Y-20.048 E0.1323
G1 X9.651 Y-20.041 E0.0016
G1 X9.949 Y-19.891 E0.0332
G1 X9.963 Y-19.884 E0.0016
G1 X11.084 Y-19.257 E0.1282
G1 X11.101 Y-19.247 E0.0019
G1 X11.430 Y-19.039 E0.0389
G1 X11.446 Y-19.029 E0.0019
G1 X12.177 Y-18.512 E0.0893
G1 X12.191 Y-18.501 E0.0018
G1 X12.482 Y-18.273 E0.0369
G1 X12.495 Y-18.261 E0.0018
G1 X13.357 Y-17.511 E0.1140
G1 X13.368 Y-17.501 E0.0015
G1 X13.591 Y-17.290 E0.0307
G1 X13.602 Y-17.279 E0.0015
G1 X14.397 Y-16.462 E0.1137
G1 X14.404 Y-16.454 E0.0010
G1 X14.549 Y-16.296 E0.0215
G1 X14.556 Y-16.288 E0.0011
G1 X15.409 Y-15.301 E0.1302
G1 X15.418 Y-15.291 E0.0013
G1 X15.585 Y-15.082 E0.0267
G1 X15.593 Y-15.072 E0.0013
G1 X16.392 Y-13.999 E0.1334
G1 X16.396 Y-13.994 E0.0007
G1 X16.477 Y-13.880 E0.0140
G1 X16.481 Y-13.875 E0.0007
G1 X17.480 Y-12.420 E0.1761
G1 X17.491 Y-12.405 E0.0018
G1 X18.967 Y-11.415 E0.1773
G1 X18.976 Y-11.409 E0.0011
G1 X19.163 Y-11.274 E0.0230
G1 X19.173 Y-11.268 E0.0011
G1 X20.090 Y-10.565 E0.1153
G1 X20.104 Y-10.554 E0.0018
G1 X20.384 Y-10.316 E0.0367
G1 X20.397 Y-10.304 E0.0018
G1 X21.301 Y-9.456 E0.1237
G1 X21.315 Y-9.442 E0.0019
G1 X21.590 Y-9.155 E0.0397
G1 X21.603 Y-9.140 E0.0019
G1 X22.391 Y-8.223 E0.1207
G1 X22.401 Y-8.211 E0.0015
G1 X22.597 Y-7.961 E0.0317
G1 X22.606 Y-7.949 E0.0015
G1 X23.117 Y-7.238 E0.0874
G1 X23.127 Y-7.223 E0.0018
G1 X23.326 Y-6.914 E0.0367
G1 X23.335 Y-6.899 E0.0018
G1 X23.983 Y-5.777 E0.1293
G1 X23.994 Y-5.755 E0.0025
G1 X24.215 Y-5.304 E0.0501
G1 X24.225 Y-5.281 E0.0025
G1 X24.813 Y-3.839 E0.1554
G1 X24.820 Y-3.818 E0.0022
G1 X24.963 Y-3.395 E0.0445
G1 X24.970 Y-3.374 E0.0022
G1 X25.274 Y-2.255 E0.1157
G1 X25.277 Y-2.242 E0.0014
G1 X25.341 Y-1.965 E0.0284
G1 X25.344 Y-1.951 E0.0014
G1 X25.501 Y-1.129 E0.0835
G1 X25.503 Y-1.118 E0.0012
G1 X25.540 Y-0.883 E0.0237
G1 X25.541 Y-0.872 E0.0012
G1 X25.689 Y0.319 E0.1197
G1 X25.691 Y0.330 E0.0011
G1 X25.712 Y0.561 E0.0231
G1 X25.713 Y0.572 E0.0011
G1 X25.762 Y1.376 E0.0803
G1 X25.762 Y1.386 E0.0010
G1 X25.769 Y1.589 E0.0203
G1 X25.769 Y1.599 E0.0010
G1 X25.773 Y2.245 E0.0645
G1 X25.772 Y2.259 E0.0013
G1 X25.764 Y2.531 E0.0272
G1 X25.763 Y2.544 E0.0013
G1 X25.665 Y3.966 E0.1422
G1 X25.663 Y3.990 E0.0025
G1 X25.593 Y4.495 E0.0509
G1 X25.589 Y4.520 E0.0025
G1 X25.257 Y6.100 E0.1611
G1 X25.250 Y6.126 E0.0027
G1 X25.099 Y6.648 E0.0543
G1 X25.091 Y6.674 E0.0027
G1 X24.518 Y8.221 E0.1647
G1 X24.509 Y8.244 E0.0024
G1 X24.305 Y8.697 E0.0495
G1 X24.294 Y8.719 E0.0024
G1 X23.708 Y9.819 E0.1244
G1 X23.697 Y9.837 E0.0021
G1 X23.469 Y10.210 E0.0436
G1 X23.458 Y10.228 E0.0021
G1 X22.778 Y11.203 E0.1186
G1 X22.766 Y11.220 E0.0021
G1 X22.493 Y11.566 E0.0439
G1 X22.479 Y11.582 E0.0021
G1 X21.680 Y12.479 E0.1199
G1 X21.666 Y12.493 E0.0019
G1 X21.387 Y12.774 E0.0395
G1 X21.373 Y12.788 E0.0019
G1 X20.491 Y13.585 E0.1187
G1 X20.476 Y13.598 E0.0020
G1 X20.163 Y13.852 E0.0403
G1 X20.147 Y13.864 E0.0020
G1 X18.896 Y14.768 E0.1540
G1 X18.876 Y14.781 E0.0024
G1 X18.459 Y15.042 E0.0491
G1 X18.438 Y15.054 E0.0024
G1 X17.097 Y15.773 E0.1519
G1 X17.080 Y15.781 E0.0019
G1 X16.730 Y15.946 E0.0386
G1 X16.713 Y15.953 E0.0019
G1 X15.773 Y16.337 E0.1013
G1 X15.761 Y16.341 E0.0012
G1 X15.527 Y16.427 E0.0249
G1 X15.516 Y16.431 E0.0012
G1 X14.688 Y16.705 E0.0869
G1 X14.675 Y16.709 E0.0013
G1 X14.411 Y16.785 E0.0274
G1 X14.398 Y16.789 E0.0013
G1 X13.572 Y16.995 E0.0850
G1 X13.562 Y16.997 E0.0011
G1 X13.347 Y17.044 E0.0219
G1 X13.337 Y17.046 E0.0011
G1 X12.535 Y17.196 E0.0814
G1 X12.524 Y17.198 E0.0011
G1 X12.296 Y17.233 E0.0230
G1 X12.285 Y17.235 E0.0011
G1 X11.195 Y17.369 E0.1096
G1 X11.184 Y17.370 E0.0011
G1 X10.962 Y17.390 E0.0222
G1 X10.951 Y17.391 E0.0011
G1 X10.090 Y17.444 E0.0861
G1 X10.078 Y17.445 E0.0013
G1 X9.822 Y17.452 E0.0255
G1 X9.809 Y17.452 E0.0012
G1 X7.929 Y17.437 E0.1877
G1 X7.918 Y17.437 E0.0010
G1 X7.704 Y17.429 E0.0214
G1 X7.693 Y17.429 E0.0010
G1 X5.431 Y17.279 E0.2262
G1 X4.205 Y17.243 E0.1224
G1 X2.887 Y17.258 E0.1315
G1 X0.175 Y17.372 E0.2709
G1 X0.160 Y17.373 E0.0015
G1 E-5.2000 F4800
G1 Z1.500 F15000
G1 X0.154 Y16.893 F15000
G1 Z0.500 F15000
G1 E5.2000 F4800
G1 X-0.142 Y16.893 E0.0295 F2880
